symbols/web/filter_none/materialsymbolsrounded/filter_none_wght300_40px.svg

<svg xmlns="http://www.w3.org/2000/svg" height="40" width="40"><path d="M12.208 29.958q-1.083 0-1.833-.75t-.75-1.833V6.792q0-1.084.75-1.854.75-.771 1.833-.771h20.584q1.083 0 1.854.771.771.77.771 1.854v20.583q0 1.083-.771 1.833t-1.854.75Zm0-2.083h20.584q.25 0 .396-.146.145-.146.145-.354V6.792q0-.25-.145-.396-.146-.146-.396-.146H12.208q-.208 0-.354.146t-.146.396v20.583q0 .208.146.354t.354.146Zm-5 7.125q-1.083 0-1.854-.771-.771-.771-.771-1.854V10.708q0-.416.313-.708.312-.292.729-.292.458 0 .75.292t.292.75v21.625q0 .25.145.396.146.146.396.146h21.667q.417 0 .708.291.292.292.292.75 0 .459-.292.75-.291.292-.75.292Zm4.5-28.75v21.625V6.25Z"/></svg>

<svg xmlns="http://www.w3.org/2000/svg" height="40" width="40"><path d="M12.208 29.958Q11.125 29.958 10.375 29.208Q9.625 28.458 9.625 27.375V6.792Q9.625 5.708 10.375 4.938Q11.125 4.167 12.208 4.167H32.792Q33.875 4.167 34.646 4.938Q35.417 5.708 35.417 6.792V27.375Q35.417 28.458 34.646 29.208Q33.875 29.958 32.792 29.958ZM12.208 27.875H32.792Q33.042 27.875 33.188 27.729Q33.333 27.583 33.333 27.375V6.792Q33.333 6.542 33.188 6.396Q33.042 6.25 32.792 6.25H12.208Q12 6.25 11.854 6.396Q11.708 6.542 11.708 6.792V27.375Q11.708 27.583 11.854 27.729Q12 27.875 12.208 27.875ZM7.208 35Q6.125 35 5.354 34.229Q4.583 33.458 4.583 32.375V10.708Q4.583 10.292 4.896 10Q5.208 9.708 5.625 9.708Q6.083 9.708 6.375 10Q6.667 10.292 6.667 10.75V32.375Q6.667 32.625 6.812 32.771Q6.958 32.917 7.208 32.917H28.875Q29.292 32.917 29.583 33.208Q29.875 33.5 29.875 33.958Q29.875 34.417 29.583 34.708Q29.292 35 28.833 35ZM11.708 6.25Q11.708 6.25 11.708 6.396Q11.708 6.542 11.708 6.792V27.375Q11.708 27.583 11.708 27.729Q11.708 27.875 11.708 27.875Q11.708 27.875 11.708 27.729Q11.708 27.583 11.708 27.375V6.792Q11.708 6.542 11.708 6.396Q11.708 6.25 11.708 6.25Z"/></svg>
